X:1
T:Diz que fui por aí
T:Diz que fui por aí
T:Hortêncio Rocha & Zé Kéti
T:1
T:2
T:Diz que fui por aí
C:Zé Kéti & Hortêncio Rocha
Z:All Rights Reserved
L:1/16
Q:1/4=60
M:2/4
K:D
V:1 treble nm="MusicXML Part"
%%MIDI program 0
%%MIDI control 7 102
%%MIDI control 10 64
V:1
 z F2F- || F2FF ^EF2A- | A4 z4 | z2 EE E^DEG- | G4 z4 | z DDD CDF2- | F2>D2 DCDE- | E2>E2- E4 | %8
w: Se\_al- guém|* per- gun- tar por mim||Diz que fui por a- í||Le- van- do\_um vi- o- lão|* Em- bai- xo do bra-|* ço *|
 z8 | z B2B c2d2 | c2>c2- cB2F- | FFAA AB=cB- | B4- BA2E- | EE2G A2B2 | A2>A2- A4 | %15
w: |Em qual- quer es-|qui- na * eu pa-|* ro Em qual- quer bo- te- quim|* * Eu en-|* tro Se\_hou- ver mo-|ti- vo *|
 (3F2F2F2 (3F2A2^G2 | G2>F2- F4 | z2 EE EFGF- | F4- FC2E- | ED2D2F2A | c4 BA2F | A2>G2 FG2F- | %22
w: É mais um sam- ba que\_eu|fa- ço *|Se qui- se- rem sa- ber|* * se\_eu vol-|* to Di- ga que|sim Mas só de-|pois que a sau- da-|
 F2<E2 D2C2 | A4- A=C2C- | C4 FB2F | A2>G2 F2GF- | FE2D2C2E- | ED2D- D4 |"_Fine" z8 | z2 GG FGF2- | %30
w: * de Se\_a fas|tar * de mim|* Mas só de-|pois que a sau- da-|* de Se\_a- fas- tar|* de mim *||Te- nho\_um vi- o- lão|
 F2EF ECA,D- | D2dd dcdc- | cB2c BFDA- | A4 GGFG | (3F2E2F2 (3E2C2A,2 | =C8 | B,8 | z2 GG GFGF- | %38
w: * pa- ra me a- com- pa-|nhar Te- nho mui- tos a- mi-|* gos Eu sou po- pu- lar|* Te- nho\_a ma- dru-|ga- da co- mo com- pa-|nhei-|ra|A sau- da- de me dói|
 F2EF ECA,D- | D2dd dcdc- | c2Bc BFDA- | A2-GG GFGF- | F2ED (3C2E2D2 | D4 D4 |!D.C.! z8 |] %45
w: * No meu pei- to me rói|* Eu es- tou na ci- da-|* de\_Eu es- tou na fa- ve-|* la\_Eu es- tou por a- í|* Sem- pre pen- san- do|ne- la||

